icons/tv.svg

<svg xmlns="http://www.w3.org/2000/svg" width="96" height="96"><path d="M12 8h72c2.1 0 4.2.8 5.7 2.3 1.5 1.5 2.3 3.6 2.3 5.7v48c0 2.1-.8 4.2-2.3 5.7-1.5 1.5-3.6 2.3-5.7 2.3H12c-2.1 0-4.2-.8-5.7-2.3C4.8 68.2 4 66.1 4 64V16c0-2.1.8-4.2 2.3-5.7C7.8 8.8 9.9 8 12 8zm0 8h72v48H12V16zm12 68c-1.1 0-2.1-.4-2.8-1.2-.8-.7-1.2-1.7-1.2-2.8 0-1.1.4-2.1 1.2-2.8.7-.8 1.7-1.2 2.8-1.2h48c1.1 0 2.1.4 2.8 1.2.8.7 1.2 1.7 1.2 2.8 0 1.1-.4 2.1-1.2 2.8-.7.8-1.7 1.2-2.8 1.2H24z" fill-rule="evenodd" fill="#454545"/></svg>

<?xml version="1.0" standalone="no"?><!-- Generator: Gravit.io --><svg xmlns="http://www.w3.org/2000/svg" xmlns:xlink="http://www.w3.org/1999/xlink" width="96" height="96"><path d=" M 12 8 L 84 8 C 86.1 8 88.2 8.8 89.7 10.3 C 91.2 11.8 92 13.899999999999999 92 16 L 92 64 C 92 66.1 91.2 68.2 89.7 69.7 C 88.2 71.2 86.1 72 84 72 L 12 72 C 9.9 72 7.8 71.2 6.3 69.7 C 4.8 68.2 4 66.1 4 64 L 4 16 C 4 13.899999999999999 4.8 11.8 6.3 10.3 C 7.8 8.8 9.9 8 12 8 Z  M 12 16 L 84 16 L 84 64 L 12 64 L 12 16 Z  M 24 84 C 22.9 84 21.9 83.6 21.2 82.8 C 20.4 82.1 20 81.1 20 80 C 20 78.9 20.4 77.9 21.2 77.2 C 21.9 76.4 22.9 76 24 76 L 72 76 C 73.1 76 74.1 76.4 74.8 77.2 C 75.6 77.9 76 78.9 76 80 C 76 81.1 75.6 82.1 74.8 82.8 C 74.1 83.6 73.1 84 72 84 L 24 84 Z " fill-rule="evenodd" fill="#454545" stroke="none"/><mask id="_mask_f0LiJmvOWPKg9xmk2hwfbK9Cbc3KTU4Y"><path d=" M 12 8 L 84 8 C 86.1 8 88.2 8.8 89.7 10.3 C 91.2 11.8 92 13.899999999999999 92 16 L 92 64 C 92 66.1 91.2 68.2 89.7 69.7 C 88.2 71.2 86.1 72 84 72 L 12 72 C 9.9 72 7.8 71.2 6.3 69.7 C 4.8 68.2 4 66.1 4 64 L 4 16 C 4 13.899999999999999 4.8 11.8 6.3 10.3 C 7.8 8.8 9.9 8 12 8 Z  M 12 16 L 84 16 L 84 64 L 12 64 L 12 16 Z  M 24 84 C 22.9 84 21.9 83.6 21.2 82.8 C 20.4 82.1 20 81.1 20 80 C 20 78.9 20.4 77.9 21.2 77.2 C 21.9 76.4 22.9 76 24 76 L 72 76 C 73.1 76 74.1 76.4 74.8 77.2 C 75.6 77.9 76 78.9 76 80 C 76 81.1 75.6 82.1 74.8 82.8 C 74.1 83.6 73.1 84 72 84 L 24 84 Z " fill-rule="evenodd" fill="white" stroke="none"/></mask><path d=" M 12 8 L 84 8 C 86.1 8 88.2 8.8 89.7 10.3 C 91.2 11.8 92 13.899999999999999 92 16 L 92 64 C 92 66.1 91.2 68.2 89.7 69.7 C 88.2 71.2 86.1 72 84 72 L 12 72 C 9.9 72 7.8 71.2 6.3 69.7 C 4.8 68.2 4 66.1 4 64 L 4 16 C 4 13.899999999999999 4.8 11.8 6.3 10.3 C 7.8 8.8 9.9 8 12 8 Z  M 12 16 L 84 16 L 84 64 L 12 64 L 12 16 Z  M 24 84 C 22.9 84 21.9 83.6 21.2 82.8 C 20.4 82.1 20 81.1 20 80 C 20 78.9 20.4 77.9 21.2 77.2 C 21.9 76.4 22.9 76 24 76 L 72 76 C 73.1 76 74.1 76.4 74.8 77.2 C 75.6 77.9 76 78.9 76 80 C 76 81.1 75.6 82.1 74.8 82.8 C 74.1 83.6 73.1 84 72 84 L 24 84 Z " fill-rule="evenodd" fill="none" stroke="none" stroke-width="16" mask="url(#_mask_f0LiJmvOWPKg9xmk2hwfbK9Cbc3KTU4Y)"/></svg>
